svgs/1F62B.svg

<svg xmlns="http://www.w3.org/2000/svg" version="1.1" xmlns:xlink="http://www.w3.org/1999/xlink" preserveAspectRatio="none" x="0px" y="0px" width="72px" height="72px" viewBox="0 0 72 72">
<defs>
<g id="Layer0_0_FILL">
<path fill="#FCC21B" stroke="none" d="
M 35.85 4.85
Q 13.55 4.85 4.8 25.5 0 36.75 0 51.95 0 57.8 10.5 61.9 21 66.05 35.85 66.05 50.75 66.05 61.25 61.9 71.75 57.8 71.75 51.95 71.75 36.75 66.95 25.5 58.2 4.85 35.85 4.85 Z"/>
</g>

<g id="Layer0_1_FILL">
<path fill="#ED6C30" stroke="none" d="
M 97.65 76.15
Q 99.35 70.25 96.45 68.3 94.45 66.95 91.35 67.25 91 67.3 86 68.3 75.95 70.35 64 70.35 52 70.35 41.95 68.3 36.95 67.3 36.6 67.25 33.5 66.95 31.5 68.3 28.6 70.25 30.3 76.15 32 82 36.65 86.85 40.85 91.2 46.2 94 54.3 98.25 64 98.25 73.65 98.25 81.75 94 87.1 91.2 91.3 86.85 96 82 97.65 76.15 Z"/>
</g>

<path id="Layer0_2_1_STROKES" stroke="#2F2F2F" stroke-width="3" stroke-linejoin="round" stroke-linecap="round" fill="none" d="
M 54.8 19.7
L 53.65 19.6
Q 49.65 19.25 48.15 17.75 47 16.35 46.5 15.3
M 15.75 19.7
Q 20.65 19.5 22.4 17.75 23.55 16.35 24.05 15.3"/>

<path id="Layer0_3_MEMBER_0_1_STROKES" stroke="#2F2F2F" stroke-width="3" stroke-linejoin="round" stroke-linecap="round" fill="none" d="
M 53.57364654541015 33.517068481445314
Q 48.445988464355466 30.55384979248047 42.30163955688476 28.6968994140625 48.445988464355466 26.721420288085938 53.57364654541015 23.876730346679686"/>

<path id="Layer0_3_MEMBER_1_1_STROKES" stroke="#2F2F2F" stroke-width="3" stroke-linejoin="round" stroke-linecap="round" fill="none" d="
M 18.51991500854492 33.517068481445314
Q 23.64757308959961 30.55384979248047 29.79192199707031 28.6968994140625 23.64757308959961 26.721420288085938 18.51991500854492 23.876730346679686"/>
</defs>

<g id="Layer_1">
<g transform="matrix( 1, 0, 0, 1, 0,0) ">
<use xlink:href="#Layer0_0_FILL"/>
</g>

<g transform="matrix( -0.5320587158203125, 0, 0, -0.61676025390625, 70.05,94.95) ">
<use xlink:href="#Layer0_1_FILL"/>
</g>

<g transform="matrix( 1, 0, 0, 1, 0.75,0) ">
<use xlink:href="#Layer0_2_1_STROKES"/>
</g>

<g transform="matrix( 0.8840789794921875, 0, 0, 0.790191650390625, 3.8,0.25) ">
<use xlink:href="#Layer0_3_MEMBER_0_1_STROKES" transform="matrix( 1.1311187744140625, 0, 0, 1.2655029296875, -4.25,-0.3) "/>
</g>

<g transform="matrix( 0.8840789794921875, 0, 0, 0.790191650390625, 3.8,0.25) ">
<use xlink:href="#Layer0_3_MEMBER_1_1_STROKES" transform="matrix( 1.1311187744140625, 0, 0, 1.2655029296875, -4.25,-0.3) "/>
</g>
</g>
</svg>

<svg xmlns="http://www.w3.org/2000/svg" xmlns:xlink="http://www.w3.org/1999/xlink" preserveAspectRatio="none" viewBox="0 0 72 72"><defs><path id="a" fill="#FCC21B" d="M35.85 4.85q-22.3 0-31.05 20.65Q0 36.75 0 51.95q0 5.85 10.5 9.95 10.5 4.15 25.35 4.15 14.9 0 25.4-4.15 10.5-4.1 10.5-9.95 0-15.2-4.8-26.45Q58.2 4.85 35.85 4.85z"/><path id="b" fill="#ED6C30" d="M97.65 76.15q1.7-5.9-1.2-7.85-2-1.35-5.1-1.05Q91 67.3 86 68.3q-10.05 2.05-22 2.05-12 0-22.05-2.05-5-1-5.35-1.05-3.1-.3-5.1 1.05-2.9 1.95-1.2 7.85Q32 82 36.65 86.85q4.2 4.35 9.55 7.15 8.1 4.25 17.8 4.25 9.65 0 17.75-4.25 5.35-2.8 9.55-7.15Q96 82 97.65 76.15z"/><path id="c" fill="none" stroke="#2F2F2F" stroke-linecap="round" stroke-linejoin="round" stroke-width="3" d="M54.8 19.7l-1.15-.1q-4-.35-5.5-1.85-1.15-1.4-1.65-2.45m-30.75 4.4q4.9-.2 6.65-1.95 1.15-1.4 1.65-2.45"/><path id="d" fill="none" stroke="#2F2F2F" stroke-linecap="round" stroke-linejoin="round" stroke-width="3" d="M53.574 33.517q-5.128-2.963-11.272-4.82 6.144-1.976 11.272-4.82"/><path id="e" fill="none" stroke="#2F2F2F" stroke-linecap="round" stroke-linejoin="round" stroke-width="3" d="M18.52 33.517q5.128-2.963 11.272-4.82-6.144-1.976-11.272-4.82"/></defs><use xlink:href="#a"/><use transform="matrix(-.53206 0 0 -.61676 70.05 94.95)" xlink:href="#b"/><use transform="translate(.75)" xlink:href="#c"/><use transform="matrix(1 0 0 .99999 .043 .013)" xlink:href="#d"/><use transform="matrix(1 0 0 .99999 .043 .013)" xlink:href="#e"/></svg>
